packages/bezier-icons/icons/microphone-off.svg

<svg width="24" height="24" viewBox="0 0 24 24" fill="none" xmlns="http://www.w3.org/2000/svg">
<path fill-rule="evenodd" clip-rule="evenodd" d="M15.414 15.0855L16.8549 16.5264C17.3898 15.7913 17.7618 14.9299 17.9178 13.9955C18.0088 13.4508 18.4477 13 19 13C19.5523 13 20.0066 13.4495 19.9384 13.9975C19.754 15.4804 19.1637 16.8374 18.2822 17.9537L21.0919 20.7634C21.4824 21.1539 21.4824 21.7871 21.0919 22.1776C20.7014 22.5682 20.0682 22.5682 19.6777 22.1776L2.70711 5.20708C2.31658 4.81655 2.31658 4.18339 2.70711 3.79286C3.09763 3.40234 3.7308 3.40234 4.12132 3.79286L8 7.67154V6C8 3.79086 9.79086 2 12 2C14.2091 2 16 3.79086 16 6V13C16 13.7642 15.7857 14.4783 15.414 15.0855ZM14 13V6C14 4.89543 13.1046 4 12 4C10.8954 4 10 4.89543 10 6V9.67154L13.9132 13.5847C13.9696 13.3998 14 13.2034 14 13Z" fill="#313234"/>
<path d="M8 13V12L12.8987 16.8987C12.6098 16.965 12.309 17 12 17C9.79086 17 8 15.2091 8 13Z" fill="#313234"/>
<path d="M12 19C12.8804 19 13.7165 18.8104 14.4697 18.4697L15.9554 19.9554C15.0634 20.4637 14.0642 20.8054 13 20.9381V23H11V20.9381C7.38059 20.4868 4.51204 17.6176 4.06163 13.9979C3.99344 13.4498 4.44772 13 5 13C5.55229 13 5.99127 13.4511 6.08226 13.9958C6.55661 16.8356 9.02554 19 12 19Z" fill="#313234"/>
</svg>

<svg xmlns="http://www.w3.org/2000/svg" width="24" height="24" fill="none" viewBox="0 0 24 24"><path fill="#313234" fill-rule="evenodd" d="m15.414 15.086 1.44 1.44a6 6 0 0 0 1.064-2.53c.09-.545.53-.996 1.082-.996s1.007.45.938.998a7.96 7.96 0 0 1-1.656 3.956l2.81 2.81a1 1 0 0 1-1.414 1.414L2.708 5.208A1 1 0 1 1 4.12 3.792L8 7.672V6a4 4 0 1 1 8 0v7c0 .764-.214 1.478-.586 2.085M14 13V6a2 2 0 1 0-4 0v3.672l3.913 3.913Q14 13.306 14 13" clip-rule="evenodd"/><path fill="#313234" d="M8 13v-1l4.899 4.899q-.435.1-.899.101a4 4 0 0 1-4-4"/><path fill="#313234" d="M12 19c.88 0 1.717-.19 2.47-.53l1.485 1.485a7.95 7.95 0 0 1-2.955.983V23h-2v-2.062a8.004 8.004 0 0 1-6.938-6.94C3.993 13.45 4.448 13 5 13s.991.451 1.082.996A6 6 0 0 0 12 19"/></svg>
